src/apps/scalable/calendar.svg

<?xml version="1.0" encoding="UTF-8" standalone="no"?>
<svg
   width="64"
   height="64"
   viewBox="0 0 16.933 16.933"
   version="1.1"
   id="svg67"
   sodipodi:docname="calendar.svg"
   inkscape:version="1.2 (dc2aedaf03, 2022-05-15)"
   xmlns:inkscape="http://www.inkscape.org/namespaces/inkscape"
   xmlns:sodipodi="http://sodipodi.sourceforge.net/DTD/sodipodi-0.dtd"
   xmlns:xlink="http://www.w3.org/1999/xlink"
   xmlns="http://www.w3.org/2000/svg"
   xmlns:svg="http://www.w3.org/2000/svg">
  <sodipodi:namedview
     id="namedview69"
     pagecolor="#ffffff"
     bordercolor="#000000"
     borderopacity="0.25"
     inkscape:showpageshadow="2"
     inkscape:pageopacity="0.0"
     inkscape:pagecheckerboard="0"
     inkscape:deskcolor="#d1d1d1"
     showgrid="false"
     inkscape:zoom="12.375"
     inkscape:cx="32"
     inkscape:cy="32"
     inkscape:window-width="1920"
     inkscape:window-height="1015"
     inkscape:window-x="0"
     inkscape:window-y="0"
     inkscape:window-maximized="1"
     inkscape:current-layer="svg67" />
  <defs
     id="defs33">
    <linearGradient
       id="a">
      <stop
         offset="0"
         id="stop2" />
      <stop
         stop-opacity="0"
         offset="1"
         id="stop4" />
    </linearGradient>
    <linearGradient
       id="b"
       x1="30"
       x2="30"
       y1="32"
       y2="14"
       gradientTransform="scale(.26458)"
       gradientUnits="userSpaceOnUse"
       xlink:href="#a" />
    <linearGradient
       id="d"
       x1="30"
       x2="30"
       y1="4"
       y2="22"
       gradientTransform="matrix(.26458 0 0 -.26458 0 16.933)"
       gradientUnits="userSpaceOnUse"
       xlink:href="#a" />
    <linearGradient
       id="f"
       x1="2.524"
       x2="2.524"
       y1="7.144"
       y2="9.789"
       gradientUnits="userSpaceOnUse">
      <stop
         offset="0"
         id="stop9" />
      <stop
         stop-color="#ececec"
         offset=".2"
         id="stop11" />
      <stop
         stop-color="#fff"
         offset=".378"
         id="stop13" />
      <stop
         stop-color="#c2c2c2"
         offset=".526"
         id="stop15" />
      <stop
         stop-color="#1a1a1a"
         offset=".585"
         id="stop17" />
      <stop
         stop-color="#fff"
         offset=".665"
         id="stop19" />
      <stop
         stop-color="#999"
         offset=".883"
         id="stop21" />
      <stop
         offset="1"
         id="stop23" />
    </linearGradient>
    <linearGradient
       id="c"
       x1="8.202"
       x2="8.202"
       y1="10.848"
       y2="6.35"
       gradientTransform="scale(.26458)"
       gradientUnits="userSpaceOnUse">
      <stop
         stop-color="#f24236"
         offset="0"
         id="stop26" />
      <stop
         stop-color="#fe6b62"
         offset="1"
         id="stop28" />
    </linearGradient>
    <radialGradient
       id="e"
       cx="2.516"
       cy="8.466"
       r="1.058"
       gradientTransform="matrix(1.5 0 0 1.5 -1.258 -4.233)"
       gradientUnits="userSpaceOnUse"
       xlink:href="#a" />
    <radialGradient
       id="g"
       cx="2.516"
       cy="8.466"
       r="1.058"
       gradientTransform="matrix(1.5 0 0 1.5 10.513 -4.233)"
       gradientUnits="userSpaceOnUse"
       xlink:href="#a" />
    <linearGradient
       inkscape:collect="always"
       xlink:href="#c"
       id="linearGradient1149"
       x1="2.6526656"
       y1="3.9338219"
       x2="2.6471944"
       y2="2.8400466"
       gradientUnits="userSpaceOnUse" />
  </defs>
  <g
     color="#000"
     id="g45">
    <path
       d="M4.37.53C2.254.53.53 2.312.53 4.496v8.468c0 2.184 1.725 3.968 3.84 3.968h8.194c2.114 0 3.84-1.783 3.84-3.968V4.497c0-2.184-1.726-3.968-3.84-3.968zm.256.52h7.681c1.844 0 3.33 1.534 3.33 3.44v7.937c0 1.906-1.485 3.44-3.33 3.44h-7.68c-1.845 0-3.33-1.534-3.33-3.44V4.49c0-1.906 1.485-3.44 3.33-3.44z"
       opacity=".01"
       style="font-feature-settings:normal;font-variant-alternates:normal;font-variant-caps:normal;font-variant-east-asian:normal;font-variant-ligatures:normal;font-variant-numeric:normal;font-variant-position:normal;font-variation-settings:normal;inline-size:0;isolation:auto;mix-blend-mode:normal;shape-margin:0;shape-padding:0;text-decoration-color:#000;text-decoration-line:none;text-decoration-style:solid;text-indent:0;text-orientation:mixed;text-transform:none;white-space:normal"
       id="path35" />
    <path
       d="M4.359.794C2.392.794.795 2.447.795 4.48v8.5c0 2.035 1.597 3.688 3.564 3.688h8.216c1.967 0 3.564-1.653 3.564-3.688v-8.5c0-2.034-1.597-3.687-3.564-3.687zm.272.256h7.672c1.842 0 3.325 1.534 3.325 3.44v7.937c0 1.906-1.483 3.44-3.325 3.44H4.63c-1.842 0-3.325-1.534-3.325-3.44V4.49c0-1.906 1.483-3.44 3.325-3.44z"
       opacity=".01"
       style="font-feature-settings:normal;font-variant-alternates:normal;font-variant-caps:normal;font-variant-east-asian:normal;font-variant-ligatures:normal;font-variant-numeric:normal;font-variant-position:normal;font-variation-settings:normal;inline-size:0;isolation:auto;mix-blend-mode:normal;shape-margin:0;shape-padding:0;text-decoration-color:#000;text-decoration-line:none;text-decoration-style:solid;text-indent:0;text-orientation:mixed;text-transform:none;white-space:normal"
       id="path37" />
    <path
       d="M4.31 1.058c-1.866 0-3.375 1.539-3.375 3.44v8.467c0 1.9 1.57 3.439 3.435 3.439h8.2c1.866 0 3.427-1.538 3.427-3.44V4.498c0-1.9-1.51-3.439-3.375-3.439h-.097c1.794.087 3.214 1.582 3.214 3.432v7.937c0 1.906-1.506 3.44-3.377 3.44h-7.79c-1.871 0-3.377-1.534-3.377-3.44V4.49c0-1.85 1.42-3.345 3.214-3.432z"
       opacity=".03"
       style="font-feature-settings:normal;font-variant-alternates:normal;font-variant-caps:normal;font-variant-east-asian:normal;font-variant-ligatures:normal;font-variant-numeric:normal;font-variant-position:normal;font-variation-settings:normal;inline-size:0;isolation:auto;mix-blend-mode:normal;shape-margin:0;shape-padding:0;text-decoration-color:#000;text-decoration-line:none;text-decoration-style:solid;text-indent:0;text-orientation:mixed;text-transform:none;white-space:normal"
       id="path39" />
    <path
       transform="scale(.26458)"
       d="M4 46.969V49c0 6.648 5.896 12 12.544 12h30.961C54.153 61 60 55.648 60 49v-1.992a12.972 12.972 0 0 1-13 12.963H17.002A12.973 12.973 0 0 1 4 46.969z"
       opacity=".03"
       style="font-feature-settings:normal;font-variant-alternates:normal;font-variant-caps:normal;font-variant-east-asian:normal;font-variant-ligatures:normal;font-variant-numeric:normal;font-variant-position:normal;font-variation-settings:normal;inline-size:0;isolation:auto;mix-blend-mode:normal;shape-margin:0;shape-padding:0;text-decoration-color:#000;text-decoration-line:none;text-decoration-style:solid;text-indent:0;text-orientation:mixed;text-transform:none;white-space:normal"
       id="path41" />
    <path
       d="M1.058 11.906v.592c0 1.939 1.573 3.5 3.332 3.5h8.16c1.76 0 3.325-1.561 3.325-3.5v-.58c-.006 2.095-1.537 3.78-3.44 3.78H4.498c-1.905 0-3.44-1.692-3.44-3.792z"
       opacity=".05"
       style="font-feature-settings:normal;font-variant-alternates:normal;font-variant-caps:normal;font-variant-east-asian:normal;font-variant-ligatures:normal;font-variant-numeric:normal;font-variant-position:normal;font-variation-settings:normal;inline-size:0;isolation:auto;mix-blend-mode:normal;shape-margin:0;shape-padding:0;text-decoration-color:#000;text-decoration-line:none;text-decoration-style:solid;text-indent:0;text-orientation:mixed;text-transform:none;white-space:normal"
       id="path43" />
  </g>
  <rect
     x="1.058"
     y="1.05"
     width="14.817"
     height="14.817"
     rx="3.44"
     ry="3.44"
     fill="#fff"
     id="rect47" />
  <path
     d="M4.498 1.05a3.432 3.432 0 0 0-3.44 3.44v3.976h14.817V4.49a3.432 3.432 0 0 0-3.44-3.44z"
     fill="url(#b)"
     opacity=".12"
     id="path49" />
  <path
     id="path1135"
     style="font-weight:500;font-size:6.98037px;font-family:Inter;-inkscape-font-specification:'Inter Medium';fill:url(#linearGradient1149);stroke-width:0.29085;stroke-linecap:round;stroke-linejoin:bevel;fill-opacity:1"
     d="M 6.2651273 5.8506905 C 5.9494906 5.8506905 5.6681165 5.9150577 5.4202343 6.0439565 C 5.1723521 6.1712027 4.9773878 6.3505408 4.8352686 6.5818976 C 4.6931495 6.8132543 4.6218491 7.0836584 4.6218491 7.3926849 L 5.3530562 7.3926849 C 5.3530562 7.2109046 5.3893792 7.0522632 5.4620914 6.9167543 C 5.5348034 6.7812454 5.6392186 6.6764157 5.7747276 6.602051 C 5.9102366 6.5276864 6.0688779 6.4904321 6.2506582 6.4904321 C 6.4225232 6.4904321 6.5770251 6.5239615 6.7141867 6.5917159 C 6.8513481 6.6578179 6.9593858 6.7530232 7.0387083 6.8769642 C 7.1180306 6.9992528 7.1575617 7.1445448 7.1575617 7.3131047 C 7.1575617 7.4618341 7.128172 7.6025723 7.06868 7.7347761 C 7.0091883 7.86698 6.9190536 8.0062702 6.7984176 8.153347 C 6.6794341 8.2987712 6.5281403 8.4684849 6.3447075 8.6618331 L 4.6270167 10.441534 L 4.6270167 10.996528 L 7.968349 10.996528 L 7.968349 10.339734 L 5.6827454 10.339734 L 5.6827454 10.302527 L 6.6914495 9.2467988 C 7.000476 8.9328147 7.2419046 8.6656187 7.4154221 8.4458298 C 7.5889396 8.2243884 7.7103267 8.023939 7.7797337 7.8438112 C 7.8507933 7.6636835 7.8867018 7.4792748 7.8867018 7.2908843 C 7.8867018 7.0182139 7.8176784 6.7735773 7.6805169 6.5570934 C 7.5433554 6.3389571 7.3525304 6.1669664 7.1079533 6.0413728 C 6.8650288 5.9141266 6.5840691 5.8506905 6.2651273 5.8506905 z M 10.744352 5.8506905 C 10.450199 5.8506905 10.185382 5.9127808 9.9490677 6.036722 C 9.7127533 6.1606631 9.5108559 6.3413469 9.3439485 6.5793138 C 9.1770412 6.8156282 9.0492379 7.1057978 8.9600002 7.4495278 C 8.8724152 7.7932578 8.8282279 8.1863947 8.8282279 8.6292776 C 8.8282279 9.0969487 8.8811083 9.4873942 8.9868714 9.7997257 C 9.0942871 10.112057 9.2373022 10.360317 9.4157774 10.545402 C 9.5942525 10.730487 9.7924248 10.862947 10.010561 10.942269 C 10.23035 11.021592 10.453876 11.062985 10.680275 11.06629 C 11.03392 11.069595 11.342924 10.995087 11.607332 10.843052 C 11.871739 10.689365 12.076329 10.481052 12.221752 10.218297 C 12.368829 9.9555416 12.442406 9.6621637 12.442406 9.3382643 C 12.442406 9.0143648 12.371622 8.7269889 12.229504 8.4758016 C 12.087385 8.2246142 11.89656 8.0277875 11.65694 7.8856683 C 11.418973 7.7418967 11.152708 7.6701819 10.858555 7.6701819 C 10.681732 7.6701819 10.51295 7.6982262 10.352653 7.7544128 C 10.194008 7.8089469 10.050578 7.8875946 9.9216797 7.9900527 C 9.7944335 8.0908581 9.6868104 8.2131765 9.5992251 8.3569481 L 9.5620188 8.3569481 C 9.5636713 7.7802088 9.6680865 7.3295354 9.8746551 7.005636 C 10.082876 6.6817366 10.372529 6.5198871 10.744352 6.5198871 C 10.988929 6.5198871 11.187619 6.5870481 11.339653 6.7209045 C 11.491687 6.8547609 11.593309 7.027166 11.644538 7.2386921 L 12.400549 7.2386921 C 12.360889 6.9709793 12.267546 6.7323445 12.120469 6.5224709 C 11.975045 6.3125973 11.784634 6.1479542 11.549972 6.0289707 C 11.31531 5.9099872 11.046769 5.8506905 10.744352 5.8506905 z M 10.694744 8.2923539 C 10.888092 8.2923539 11.060083 8.3392325 11.210465 8.4334277 C 11.362499 8.527623 11.48161 8.6550119 11.567542 8.8153091 C 11.655127 8.9756062 11.698797 9.1535987 11.698797 9.3485993 C 11.698797 9.5485577 11.654195 9.7292415 11.564958 9.8911912 C 11.47572 10.053141 11.354333 10.181875 11.200646 10.277723 C 11.04696 10.373571 10.872692 10.421898 10.677691 10.421898 C 10.482691 10.421898 10.307491 10.373157 10.152152 10.275656 C 9.9984651 10.176504 9.877078 10.045907 9.7878404 9.8839566 C 9.7002553 9.7220069 9.6560681 9.5458769 9.6560681 9.3558339 C 9.6560681 9.2137148 9.6827669 9.0789784 9.7356482 8.9517321 C 9.7901823 8.8228334 9.8646907 8.7087938 9.958886 8.6096409 C 10.053081 8.510488 10.16205 8.4327714 10.285991 8.3765848 C 10.411585 8.3203982 10.547667 8.2923539 10.694744 8.2923539 z " />
  <path
     d="M4.498 15.883a3.432 3.432 0 0 1-3.44-3.44V8.467h14.817v3.976a3.432 3.432 0 0 1-3.44 3.44z"
     fill="url(#d)"
     opacity=".12"
     id="path53" />
  <circle
     cx="2.516"
     cy="8.466"
     r="1.587"
     fill="url(#e)"
     opacity=".15"
     id="circle55" />
  <path
     d="M2.514 7.144c.22 0 .396.177.396.396v1.853a.396.396 0 1 1-.793 0V7.54c0-.22.177-.396.397-.396z"
     fill="url(#f)"
     id="path57" />
  <path
     d="M2.514 7.144a.396.396 0 0 0-.397.397v1.852a.396.396 0 1 0 .793 0V7.54a.396.396 0 0 0-.396-.397zm0 .04c.202 0 .366.172.366.385v1.795a.375.375 0 0 1-.366.385.375.375 0 0 1-.367-.385V7.57c0-.213.164-.385.367-.385z"
     opacity=".25"
     id="path59" />
  <circle
     cx="14.287"
     cy="8.466"
     r="1.587"
     fill="url(#g)"
     opacity=".15"
     id="circle61" />
  <path
     d="M2.514 7.144c.22 0 .396.177.396.396v1.853a.396.396 0 1 1-.793 0V7.54c0-.22.177-.396.397-.396z"
     fill="url(#f)"
     transform="translate(11.906)"
     id="path63" />
  <path
     d="M14.42 7.144a.396.396 0 0 0-.397.397v1.852a.396.396 0 1 0 .793 0V7.54a.396.396 0 0 0-.396-.397zm0 .04c.202 0 .366.172.366.385v1.795a.375.375 0 0 1-.366.385.375.375 0 0 1-.367-.385V7.57c0-.213.164-.385.367-.385z"
     opacity=".25"
     id="path65" />
</svg>

<svg width="64" height="64" viewBox="0 0 16.933 16.933" xmlns:xlink="http://www.w3.org/1999/xlink" xmlns="http://www.w3.org/2000/svg"><defs><linearGradient id="a"><stop offset="0"/><stop stop-opacity="0" offset="1"/></linearGradient><linearGradient id="c" x1="30" x2="30" y1="32" y2="14" gradientTransform="scale(.26458)" gradientUnits="userSpaceOnUse" xlink:href="#a"/><linearGradient id="e" x1="30" x2="30" y1="4" y2="22" gradientTransform="matrix(.26458 0 0 -.26458 0 16.933)" gradientUnits="userSpaceOnUse" xlink:href="#a"/><linearGradient id="g" x1="2.524" x2="2.524" y1="7.144" y2="9.789" gradientUnits="userSpaceOnUse"><stop offset="0"/><stop stop-color="#ececec" offset=".2"/><stop stop-color="#fff" offset=".378"/><stop stop-color="#c2c2c2" offset=".526"/><stop stop-color="#1a1a1a" offset=".585"/><stop stop-color="#fff" offset=".665"/><stop stop-color="#999" offset=".883"/><stop offset="1"/></linearGradient><linearGradient id="b" x1="8.202" x2="8.202" y1="10.848" y2="6.35" gradientTransform="scale(.26458)" gradientUnits="userSpaceOnUse"><stop stop-color="#f24236" offset="0"/><stop stop-color="#fe6b62" offset="1"/></linearGradient><linearGradient xlink:href="#b" id="d" x1="2.653" y1="3.934" x2="2.647" y2="2.84" gradientUnits="userSpaceOnUse"/><radialGradient id="f" cx="2.516" cy="8.466" r="1.058" gradientTransform="matrix(1.5 0 0 1.5 -1.258 -4.233)" gradientUnits="userSpaceOnUse" xlink:href="#a"/><radialGradient id="h" cx="2.516" cy="8.466" r="1.058" gradientTransform="matrix(1.5 0 0 1.5 10.513 -4.233)" gradientUnits="userSpaceOnUse" xlink:href="#a"/></defs><g color="#000"><path d="M4.37.53C2.254.53.53 2.312.53 4.496v8.468c0 2.184 1.725 3.968 3.84 3.968h8.194c2.114 0 3.84-1.783 3.84-3.968V4.497c0-2.184-1.726-3.968-3.84-3.968zm.256.52h7.681c1.844 0 3.33 1.534 3.33 3.44v7.937c0 1.906-1.485 3.44-3.33 3.44h-7.68c-1.845 0-3.33-1.534-3.33-3.44V4.49c0-1.906 1.485-3.44 3.33-3.44z" opacity=".01" style="font-feature-settings:normal;font-variant-alternates:normal;font-variant-caps:normal;font-variant-east-asian:normal;font-variant-ligatures:normal;font-variant-numeric:normal;font-variant-position:normal;font-variation-settings:normal;inline-size:0;isolation:auto;mix-blend-mode:normal;shape-margin:0;shape-padding:0;text-decoration-color:#000;text-decoration-line:none;text-decoration-style:solid;text-indent:0;text-orientation:mixed;text-transform:none;white-space:normal"/><path d="M4.359.794C2.392.794.795 2.447.795 4.48v8.5c0 2.035 1.597 3.688 3.564 3.688h8.216c1.967 0 3.564-1.653 3.564-3.688v-8.5c0-2.034-1.597-3.687-3.564-3.687zm.272.256h7.672c1.842 0 3.325 1.534 3.325 3.44v7.937c0 1.906-1.483 3.44-3.325 3.44H4.63c-1.842 0-3.325-1.534-3.325-3.44V4.49c0-1.906 1.483-3.44 3.325-3.44z" opacity=".01" style="font-feature-settings:normal;font-variant-alternates:normal;font-variant-caps:normal;font-variant-east-asian:normal;font-variant-ligatures:normal;font-variant-numeric:normal;font-variant-position:normal;font-variation-settings:normal;inline-size:0;isolation:auto;mix-blend-mode:normal;shape-margin:0;shape-padding:0;text-decoration-color:#000;text-decoration-line:none;text-decoration-style:solid;text-indent:0;text-orientation:mixed;text-transform:none;white-space:normal"/><path d="M4.31 1.058c-1.866 0-3.375 1.539-3.375 3.44v8.467c0 1.9 1.57 3.439 3.435 3.439h8.2c1.866 0 3.427-1.538 3.427-3.44V4.498c0-1.9-1.51-3.439-3.375-3.439h-.097c1.794.087 3.214 1.582 3.214 3.432v7.937c0 1.906-1.506 3.44-3.377 3.44h-7.79c-1.871 0-3.377-1.534-3.377-3.44V4.49c0-1.85 1.42-3.345 3.214-3.432z" opacity=".03" style="font-feature-settings:normal;font-variant-alternates:normal;font-variant-caps:normal;font-variant-east-asian:normal;font-variant-ligatures:normal;font-variant-numeric:normal;font-variant-position:normal;font-variation-settings:normal;inline-size:0;isolation:auto;mix-blend-mode:normal;shape-margin:0;shape-padding:0;text-decoration-color:#000;text-decoration-line:none;text-decoration-style:solid;text-indent:0;text-orientation:mixed;text-transform:none;white-space:normal"/><path transform="scale(.26458)" d="M4 46.969V49c0 6.648 5.896 12 12.544 12h30.961C54.153 61 60 55.648 60 49v-1.992a12.972 12.972 0 0 1-13 12.963H17.002A12.973 12.973 0 0 1 4 46.969z" opacity=".03" style="font-feature-settings:normal;font-variant-alternates:normal;font-variant-caps:normal;font-variant-east-asian:normal;font-variant-ligatures:normal;font-variant-numeric:normal;font-variant-position:normal;font-variation-settings:normal;inline-size:0;isolation:auto;mix-blend-mode:normal;shape-margin:0;shape-padding:0;text-decoration-color:#000;text-decoration-line:none;text-decoration-style:solid;text-indent:0;text-orientation:mixed;text-transform:none;white-space:normal"/><path d="M1.058 11.906v.592c0 1.939 1.573 3.5 3.332 3.5h8.16c1.76 0 3.325-1.561 3.325-3.5v-.58c-.006 2.095-1.537 3.78-3.44 3.78H4.498c-1.905 0-3.44-1.692-3.44-3.792z" opacity=".05" style="font-feature-settings:normal;font-variant-alternates:normal;font-variant-caps:normal;font-variant-east-asian:normal;font-variant-ligatures:normal;font-variant-numeric:normal;font-variant-position:normal;font-variation-settings:normal;inline-size:0;isolation:auto;mix-blend-mode:normal;shape-margin:0;shape-padding:0;text-decoration-color:#000;text-decoration-line:none;text-decoration-style:solid;text-indent:0;text-orientation:mixed;text-transform:none;white-space:normal"/></g><rect x="1.058" y="1.05" width="14.817" height="14.817" rx="3.44" ry="3.44" fill="#fff"/><path d="M4.498 1.05a3.432 3.432 0 0 0-3.44 3.44v3.976h14.817V4.49a3.432 3.432 0 0 0-3.44-3.44z" fill="url(#c)" opacity=".12"/><path style="font-weight:500;font-size:6.98037px;font-family:Inter;-inkscape-font-specification:'Inter Medium';fill:url(#d);stroke-width:.29085;stroke-linecap:round;stroke-linejoin:bevel;fill-opacity:1" d="M6.265 5.85c-.316 0-.597.065-.845.194a1.448 1.448 0 0 0-.585.538 1.518 1.518 0 0 0-.213.81h.731c0-.181.036-.34.11-.475a.765.765 0 0 1 .312-.315.974.974 0 0 1 .476-.112c.172 0 .326.034.463.102a.778.778 0 0 1 .325.285c.079.122.119.268.119.436 0 .149-.03.29-.09.422a1.91 1.91 0 0 1-.27.418c-.119.146-.27.315-.453.509l-1.718 1.78v.555h3.341v-.657H5.683v-.037L6.69 9.247c.31-.314.55-.581.724-.801a2.43 2.43 0 0 0 .365-.602c.07-.18.107-.365.107-.553 0-.273-.07-.517-.206-.734a1.433 1.433 0 0 0-.573-.516 1.79 1.79 0 0 0-.843-.19zm4.48 0c-.295 0-.56.063-.796.187a1.702 1.702 0 0 0-.605.542 2.65 2.65 0 0 0-.384.87 4.794 4.794 0 0 0-.132 1.18c0 .468.053.858.159 1.17.107.313.25.561.429.746.178.185.376.318.595.397.22.08.443.121.67.124.353.004.662-.07.926-.223.265-.154.47-.362.615-.625a1.77 1.77 0 0 0 .22-.88c0-.324-.07-.611-.212-.862a1.572 1.572 0 0 0-.573-.59 1.514 1.514 0 0 0-.798-.216 1.519 1.519 0 0 0-.937.32c-.128.1-.235.223-.323.367h-.037c.002-.577.106-1.027.313-1.351.208-.324.498-.486.87-.486.244 0 .443.067.595.2a.976.976 0 0 1 .305.519h.756a1.65 1.65 0 0 0-.28-.717 1.516 1.516 0 0 0-.571-.493 1.757 1.757 0 0 0-.806-.178zm-.05 2.442c.193 0 .365.047.515.141a.993.993 0 0 1 .358.382c.087.16.13.339.13.534 0 .2-.044.38-.133.542-.09.162-.21.29-.364.387a.968.968 0 0 1-.523.144.968.968 0 0 1-.526-.146 1.077 1.077 0 0 1-.496-.92c0-.142.027-.277.08-.404.054-.13.129-.243.223-.342a.989.989 0 0 1 .736-.317z"/><path d="M4.498 15.883a3.432 3.432 0 0 1-3.44-3.44V8.467h14.817v3.976a3.432 3.432 0 0 1-3.44 3.44z" fill="url(#e)" opacity=".12"/><circle cx="2.516" cy="8.466" r="1.587" fill="url(#f)" opacity=".15"/><path d="M2.514 7.144c.22 0 .396.177.396.396v1.853a.396.396 0 1 1-.793 0V7.54c0-.22.177-.396.397-.396z" fill="url(#g)"/><path d="M2.514 7.144a.396.396 0 0 0-.397.397v1.852a.396.396 0 1 0 .793 0V7.54a.396.396 0 0 0-.396-.397zm0 .04c.202 0 .366.172.366.385v1.795a.375.375 0 0 1-.366.385.375.375 0 0 1-.367-.385V7.57c0-.213.164-.385.367-.385z" opacity=".25"/><circle cx="14.287" cy="8.466" r="1.587" fill="url(#h)" opacity=".15"/><path d="M2.514 7.144c.22 0 .396.177.396.396v1.853a.396.396 0 1 1-.793 0V7.54c0-.22.177-.396.397-.396z" fill="url(#g)" transform="translate(11.906)"/><path d="M14.42 7.144a.396.396 0 0 0-.397.397v1.852a.396.396 0 1 0 .793 0V7.54a.396.396 0 0 0-.396-.397zm0 .04c.202 0 .366.172.366.385v1.795a.375.375 0 0 1-.366.385.375.375 0 0 1-.367-.385V7.57c0-.213.164-.385.367-.385z" opacity=".25"/></svg>
